icons/reshape-add-geometry-16.svg

<?xml version="1.0" encoding="UTF-8"?><svg id="icons" xmlns="http://www.w3.org/2000/svg" viewBox="0 0 16 16"><defs><style>.cls-1{fill:none;}.cls-1,.cls-2{stroke-width:0px;}</style></defs><path class="cls-2" d="M13,11h1v1h-1v3h3v-3h-1v-1h1v-3h-3v3ZM15,14h-1v-1h1v1ZM14,9h1v1h-1v-1ZM11,8h1v1h-1v-1ZM11,13h1v1h-1v-1ZM9,7h1v1h-1v-1ZM9,13h1v1h-1v-1ZM16,2v1h-2v2h-1v-2h-2v-1h2V0h1v2h2ZM5,4.06573l-2-1.33331v-1.73242H0v3h1v8H0v3h3v-1.00024h2v1.00024h3v-3h-1v-5h1v-3h-3v.06573ZM1,2h1v1h-1v-1ZM2,14h-1v-1h1v1ZM7,14h-1v-1h1v1ZM6,5h1v1h-1v-1ZM6,12h-1v.99976h-2v-.99976h-1V4h1v-.06573l2,1.33331v1.73242h1v5Z"/><rect class="cls-1" width="16" height="16"/></svg>

<svg xmlns="http://www.w3.org/2000/svg" viewBox="0 0 16 16"><path d="M13 11h1v1h-1v3h3v-3h-1v-1h1V8h-3v3zm2 3h-1v-1h1v1zm-1-5h1v1h-1V9zm-3-1h1v1h-1V8zm0 5h1v1h-1v-1zM9 7h1v1H9V7zm0 6h1v1H9v-1zm7-11v1h-2v2h-1V3h-2V2h2V0h1v2h2zM5 4.066L3 2.732V1H0v3h1v8H0v3h3v-1h2v1h3v-3H7V7h1V4H5v.066zM1 2h1v1H1V2zm1 12H1v-1h1v1zm5 0H6v-1h1v1zM6 5h1v1H6V5zm0 7H5v1H3v-1H2V4h1v-.066l2 1.334V7h1v5z" stroke-width="0"/><path stroke-width="0" fill="none" d="M0 0h16v16H0z"/></svg>
